X: 11
T: Reel Béatrice
Z: ceili
S: https://thesession.org/tunes/483#setting50531
R: reel
M: 4/4
L: 1/8
K: Amin
A,B,|: "Am"C/C/C A,C EA,CE | A/A/A ED EGAB | cBAc e2ce | aeed egab |
c'bag fedc | "Dm"BddB d3^d | "E7"e^def e=dcB |1"Am"AA, A,/A,/A, A,2A,B, :|2"Am"AA, A,/A,/A, A,4||
|: "Dm"a2^ga bf f/f/f|"Am"fe^de ae e/e/e|"E7"e^def e=dcB|"Am"cdcB A4|
"Dm"a2^ga bf f/f/f|"Am"fe^de ae e/e/e|"E7"e^def e=dcB |1 "Am"AA, A,/A,/A,A,4 :|2 "Am"A2z2 "G7"G2AB ||
|: "C"c2Gc EGce | c2Gc EGce | "G7"d2Bd GBdB | "C"c2ba "G7"gfed |
"C"c2Gc EGce | c2Gc EGce | "G7"d2Bd GBdB | "C"ce"G7"dB "C"c4 :|

%-------------------- TUNE SEPARATOR --------------------%

